X:1
T:The Humours of Trim (The Rolling Wave)  "see Chieftains 'Sea Image'Bar
M:6/8
L:1/8
Q:80
C:arr. Kent Hiestand
S:Jig
K:HP
{g}cBc{g}ABA|
{GAG}A2aged|
{g}cBc{g}ABA|  !
{gef}e2c{g}dcB|
{g}cBc{g}ABA|
{GAG}A2aged|  !
{g}cec{g}dfd|
{gef}e2c{g}dcB:| |:
{g}A2agea|  !
geaged|
{g}cBc{a}gea|
{gef}e2c{g}dcB|  !
{GAG}A2agea|
geaged|
{g}cec{g}dfd|  !
{gef}e2c{g}dcB:|

